X:1
T:Title
%%score ( 1 2 ) { 3 | 4 }
L:1/8
Q:1/4=107
M:4/4
K:G
V:1 treble nm="Grand Piano, Soprano"
V:2 treble 
V:3 bass nm="Choir Pad, Lusatia, 88.88.88"
V:4 bass 
V:1
 [B,D]2 [CE]2 [CF]2 [DG]2 | [EA]2 [DB]2 [CA]2 [B,G]2 | [DB]2 [DA]2 [^DB]2 [EG]2 | %3
w: By~From~Freylinghausen,~1704 * * *|||
 [DF]2 [DE]2 [^CE]2 D2 | [DF]2 [DG]2 [DA]2 [DB]2 | z2 c2 z4 | [FA]2 [GB]2 [FA]2 [GB]2 | %7
w: ||||
 [Ad]2 [Gd]2 [E^c]2 [Fd]2 | [Gd]2 [Ge]2 [Fd]2 [Ec]2 | [GB]2 [FA]2 [EG]2 [^DF]2 | %10
w: |||
 [Dd]2 [EG]2 [EA]2 [DF]2 | [^CG]2 [DB]2 [=CA]2 [B,G]2- | [B,G]6 z2 |] %13
w: |||
V:2
 x8 | x8 | x8 | x8 | x8 | [EG]2 EF [GB]2 [FA]2 | x8 | x8 | x8 | x8 | x8 | x8 | x8 |] %13
V:3
 G,2 G,2 A,2 G,2 | G,2 G,2 F,2 G,2 | G,2 F,2 F,2 G,2 | A,2 B,2 A,2 F,2 | A,2 G,2 F,2 G,2 | %5
 B,2[K:treble] C2 D2 D2 | D2 D2 D2 D2 | D2[K:bass] B,2 A,2 A,2 | B,2 C2 A,2[K:treble] C2 | %9
 D2 D2 B,2 B,2 | G,2 G,2 C2 A,2 | G,2 G,2 F,2 G,2- | G,6 z2 |] %13
V:4
 z2 C,2 A,,2 B,,2 | C,2 D,2 D,2 G,,2 | G,,2 D,2 B,,2 E,2 | F,2 G,2 z2 D,2 | D,2 B,,2 D,2 z2 | %5
 E,2 A,,2 B,,C, D,2 | D,2 G,2 D,2 G,2 | F,2 G,2 z2 D,2 | G,2 C,2 D,2 A,,2 | B,,2 D,2 E,2 B,,2 | %10
 B,,2 C,2 C,2 D,2 | E,2 D,2 D,2 G,,2- | G,,6 z2 |] %13

